X:1
T:Escondido, 85.85.88.85
T:Escondido, 85.85.88.85
T:Edwin Othello Excell, 1889
T:Public Domain Courtesy of the Cyber Hymnal™
C:Edwin Othello Excell, 1889
Z:Public Domain
Z:Courtesy of the Cyber Hymnal™
%%score 1 ( 2 3 )
L:1/8
Q:1/4=100
M:4/4
K:E
V:1 treble 
V:2 bass 
V:3 bass 
V:1
 [B,G]3 [A,F] [G,E]2 [CA]2 x4 | [B,G]3 [G,E] [B,G]2 [A,F]2 x2 | [CA]3 [B,G] [A,F]2 [B,G]2 x | %3
 [G,E]6 z2 | [B,G]3 [A,F] [G,E]2 [CA]2 | [B,G]3 [G,E] [B,G]2 [A,F]2 x2 | %6
 [CA]3 [B,G] [A,F]2 [B,G]2 x3 | [G,E]6 z2 x2 | [GB]3 [GB] [EG]2 [Ge]2 | [Bd]2 [Ac]2 [GB]2 [EG]2 | %10
 [GB]3 [EG] [Ge]2 [GB]2 | [Bd]2 [Ac]2 [GB]2 [FA]2 | [B,G]3 [A,F] [G,E]2 [CA]2 x2 | %13
 [B,G]3 [G,E] [B,G]2 [A,F]2 x2 | [CA]3 [B,G] [A,F]2 [B,G]2 x2 | [G,E]6 x4 |] %16
V:2
 B,- B,2 [E,A,] G,-[E,G,] C2 x4 | B,-[E,B,][E,G,]E, B,-[B,,B,] A,2 x2 | %2
 C- [B,,C][B,,B,]A,- [B,,A,]B,,B,, x2 | G,-[E,G,]G,B, EB,G,E, | B, [E,B,]E,[E,A,] G,- [E,G,]E,E, | %5
 B,- [E,B,]E,[E,G,] B,-[B,,B,] A,2 x2 | C- [B,,C][B,,B,]A,- [B,,A,] B,2 x4 | %7
 G,- [E,G,-] G,4 z2 x2 | [E,E]3 [E,E] [E,B,]2 [E,B,]2 | A,B, C[A,,D] [E,E]2 [E,B,]2 | %10
 [E,E]3 [E,B,] [E,B,]2 [E,E]2 | [A,E]2 [A,E]2 B,2 [B,,B,]2 | B,- [E,B,]E,[E,A,] G,-[E,G,] C2 x2 | %13
 B,- [E,B,]E,[E,G,] B,-[B,,B,] A,2 x2 | C- [B,,C]B,,[B,,B,] A,-[B,,A,] B,2 x2 | %15
 G,-[E,G,-] G,4 x4 |] %16
V:3
 E,,4 E, E, E,,4 E,E, | E,,4 B,,,4 B,,B,, | B,,,4 B,, B,,,4 | E,,6 x2 | E,,4 E,,4 | %5
 E,,4 B,,,4 B,,B,, | B,,,4 B,, B,,,4 B,,B,, | E,,6 C,G,, E,,2 | x8 | A,,3 x5 | x8 | x4 B,2 x2 | %12
 E,,4 E,,4 E,E, | E,,4 B,,,4 B,,B,, | B,,,4 B,,,4 B,,B,, | E,,6 D,G,, E,,2 |] %16

